!!!COM: Claude Goudimel
!!!OMD: Psalm 3: O Seigneur, que de gens
**kern	**kern	**kern	**kern
*part4	*part3	*part2	*part1
*staff4	*staff3	*staff2	*staff1
*clefF4	*clefGv2	*clefG2	*clefG2
*k[f#c#]	*k[f#c#]	*k[f#c#]	*k[f#c#]
!!LO:TX:omd:t=
*M4/4	*M4/4	*M4/4	*M4/4
=1	=1	=1	=1
2D	2F#X	2A	2d
2D	2F#X	2d	2a
=2	=2	=2	=2
2F#	2F#X	2c#	2a
4E	4G#X	4e	4b
4AA	4A	4e	4cc#
=3	=3	=3	=3
2D	2A	2f#	2dd
2r	2r	2r	2r
=4	=4	=4	=4
2D	2A	2f#	2dd
4F#	4A	4f#	4cc#
4G	4G	4d	4b
=5	=5	=5	=5
4D	4F#X	4d	4a
4E	4E	4B	4g
2D	2F#X	2d	2a
=6	=6	=6	=6
2r	2r	2r	2r
2D	2D	2A	2f#
=7	=7	=7	=7
4D	4D	4A	4f#
4D	4F#X	4A	4d
4Cn	4E	4cn	4g
4D	[4D	4A	4f#
=8	=8	=8	=8
2AA	4D]	2A	2e
.	4C#X	.	.
2D	2D	2A	2d
=9	=9	=9	=9
2r	2r	2r	2r
2D	2F#X	2d	2a
=10	=10	=10	=10
4D	4F#X	4d	4a
4GG	4G	4d	4b
4D	4F#X	4d	4a
4E	4E	4B	4g
=11	=11	=11	=11
2BB	2E-X	2B	2f#
2r	2r	2r	2r
=12	=12	=12	=12
2D	2D	2A	2f#
4AA	4E	4c#	4a
4D	4F#X	4d	4a
=13	=13	=13	=13
4E	4E	4B	4g
4D	4A	4d	4f#
2AA	2A	2c#	2e
=14	=14	=14	=14
2r	2r	2r	2r
2D	2A	2d	2f#
=15	=15	=15	=15
4GG	4B	4d	4g
4D	4A	4d	4f#
4D	4F#X	4A	4d
4D	[4D	4A	4f#
=16	=16	=16	=16
2AA	4D]	2A	2e
.	4C#X	.	.
2D	2D	2A	2d
=17	=17	=17	=17
2r	2r	2r	2r
2D	2F#X	2A	2d
=18	=18	=18	=18
4D	4F#X	4A	4d
4C#	4A	4e	4e
4BB	4B	4e-X	4f#
4E	4B	4en	4g
=19	=19	=19	=19
2AA	2c#X	2e	2a
2r	2r	2r	2r
=20	=20	=20	=20
2A	2A	2e	2a
4E	4G	4e	4b
4A	4A	4e	4cc#
=21	=21	=21	=21
4D	4A	4f#	4dd
4E	4G#X	4e	4b
2A	2A	2c#	2a
=22	=22	=22	=22
2r	2r	2r	2r
2D	2F#X	2d	2a
=23	=23	=23	=23
4AA	4E	4c#	4a
4D	4F#X	4d	4a
4GG	4G	4d	4b
4D	4F#X	4d	4a
=24	=24	=24	=24
2E	2E	2B	2g
2BB	2E-X	2B	2f#
=25	=25	=25	=25
2r	2r	2r	2r
2D	2F#X	2A	2d
=26	=26	=26	=26
4BB	4D	4B	4f#
4AA	4E	4c#	4a
4D	4F#X	4d	4a
4E	4E	4B	4g#X
=27	=27	=27	=27
2AA	2E	2c#	2a
2r	2r	2r	2r
=28	=28	=28	=28
2D	2F#X	2d	2a
4G	4G	4d	4b
4B	4d	4g	4dd
=29	=29	=29	=29
4A	4A	4e	4dd
4A	4A	4e	4cc#
2D	2A	2f#	2dd
=30	=30	=30	=30
2r	2r	2r	2r
2D	2A	2f#	2dd
=31	=31	=31	=31
4G	4G	4d	4b
4D	4F#X	4d	4a
4E	4E	4B	4g
4D	4A	[4d	4f#
=32	=32	=32	=32
2AA	2A	4d]	2e
.	.	4c#	.
[2D	[2F#X	[2d	[2d
=33	=33	=33	=33
2D]	2F#]	2d]	2d]
2ryy	2ryy	2ryy	2ryy
==	==	==	==
*-	*-	*-	*-
!!!software: music21 v.9.7.1
!!!software: music21 v.8.3.0
!!!RDF**kern: > = above
!!!RDF**kern: < = below
